X:1
T:Akta dig för flickor
N:Transposed
R:schottis
H:efter Axel Andersson, Nyköping
O:Sörmland
Z:id:hn-schottis-40
M:C|
L:1/8
K:C
CDEF G2c2 | CDEF G2c2 | d2dc B2AB | c2BA GFED |
CDEF G2c2 | CDEF G2c2 | d2dc B2AB | c2c2 c4 :|
K:G
d2BG D2GB | d2cB c2c2 | c2AF D2FA | c2BA B2B2 |
d2BG D2GB | d2cd edcB | AGFE DcBA | G2G2 G4 :|

